app/img/product/ic_API.svg

<svg width="141" height="124" viewBox="0 0 141 124" fill="none" xmlns="http://www.w3.org/2000/svg">
    <g filter="url(#filter0_i)">
        <rect width="116.076" height="103.034" rx="10" fill="url(#paint0_linear)"/>
    </g>
    <rect x="0.5" y="0.5" width="115.076" height="102.034" rx="9.5" stroke="#FAFAFA" stroke-opacity="0.1"/>
    <rect x="11.7385" y="16.9556" width="65.2112" height="10.4338" rx="5.2169" fill="#131DAA" fill-opacity="0.37"/>
    <rect x="12.2385" y="17.4556" width="64.2112" height="9.43379" rx="4.7169" stroke="#80FF9F" stroke-opacity="0.5"/>
    <rect x="92.5996" y="16.9551" width="13.0422" height="10.4338" rx="5.2169" fill="#022AF0" fill-opacity="0.36"/>
    <rect x="93.0996" y="17.4551" width="12.0422" height="9.43379" rx="4.7169" stroke="#80FF9F" stroke-opacity="0.5"/>
    <rect x="11.7378" y="44.3438" width="50.8647" height="44.3436" rx="5" fill="#0A1193" fill-opacity="0.4"/>
    <rect x="12.2378" y="44.8438" width="49.8647" height="43.3436" rx="4.5" stroke="#80FF9F" stroke-opacity="0.5"/>
    <rect width="41.7352" height="16.9549" rx="5" transform="matrix(-1 0 0 1 109.554 44.3438)" fill="#131DAA"
          fill-opacity="0.12"/>
    <rect x="-0.5" y="0.5" width="40.7352" height="15.9549" rx="4.5" transform="matrix(-1 0 0 1 108.554 44.3438)"
          stroke="#80FF9F" stroke-opacity="0.5"/>
    <rect width="41.7352" height="16.9549" rx="5" transform="matrix(-1 0 0 1 109.554 66.5156)" fill="#131DAA"
          fill-opacity="0.23"/>
    <rect x="-0.5" y="0.5" width="40.7352" height="15.9549" rx="4.5" transform="matrix(-1 0 0 1 108.554 66.5156)"
          stroke="#80FF9F" stroke-opacity="0.5"/>
    <path d="M138.572 92.3807H134.554C134.088 90.7503 133.448 89.1198 132.574 87.6641L135.428 84.8108C136.068 84.112 136.068 83.0056 135.428 82.3068L130.012 76.8914C129.313 76.1926 128.207 76.1926 127.508 76.8914L124.655 79.7447C123.199 78.9295 121.569 78.2889 119.88 77.8231V73.7469C119.88 72.757 119.123 72 118.133 72H110.388C109.399 72 108.642 72.757 108.642 73.7469V77.7648C106.953 78.2307 105.381 78.8712 103.867 79.7447L101.072 76.9496C100.373 76.2508 99.2664 76.2508 98.5676 76.9496L93.1522 82.3651C92.5116 83.0056 92.5116 84.1702 93.1522 84.869L95.6561 87.3729C96.1219 86.5577 96.8789 85.9171 97.8106 85.4513C98.5094 85.1019 99.3246 84.869 100.14 84.869C101.304 84.869 102.469 85.2766 103.401 85.9754L107.885 89.411C109.69 88.0717 111.844 87.2564 114.232 87.2564C120.171 87.2564 125.004 92.0896 125.004 98.0291C125.004 103.969 120.229 108.802 114.232 108.802C111.844 108.802 109.631 107.987 107.885 106.647L103.401 110.083C102.469 110.782 101.304 111.189 100.14 111.189C99.3246 111.189 98.5094 111.015 97.8106 110.665C96.9372 110.258 96.1802 109.617 95.6561 108.802L93.2104 111.247C92.5116 111.888 92.5116 113.053 93.2104 113.751L98.6259 119.167C99.3246 119.866 100.431 119.866 101.13 119.167L103.983 116.314C105.439 117.129 107.069 117.769 108.758 118.235V122.253C108.758 123.243 109.515 124 110.505 124H118.191C119.181 124 119.938 123.243 119.938 122.253V118.235C121.627 117.769 123.199 117.129 124.713 116.255L127.508 119.05C128.207 119.749 129.313 119.749 130.012 119.05L135.428 113.635C136.126 112.994 136.126 111.83 135.428 111.131L132.574 108.278C133.39 106.822 134.088 105.191 134.554 103.503H138.572C139.504 103.503 140.319 102.746 140.319 101.756V94.1277C140.319 93.196 139.504 92.3807 138.572 92.3807Z"
          fill="url(#paint1_linear)"/>
    <path d="M98.5677 105.832C98.5677 106.414 98.9171 106.997 99.4412 107.288C99.9653 107.579 100.664 107.521 101.13 107.113L111.32 99.3102C111.728 99.019 111.961 98.5532 111.961 98.0291C111.961 97.505 111.728 97.0392 111.32 96.748L101.13 88.9451C100.839 88.7122 100.489 88.5957 100.14 88.5957C99.9071 88.5957 99.6741 88.654 99.4412 88.7704C98.9171 89.0616 98.5677 89.5857 98.5677 90.2262V93.7783H86.3393C85.6405 93.7783 85 94.3606 85 95.1176V101.057C85 101.756 85.5823 102.396 86.3393 102.396H98.5677V105.832Z"
          fill="url(#paint2_linear)"/>
    <defs>
        <filter id="filter0_i" x="0" y="0" width="116.076" height="107.034" filterUnits="userSpaceOnUse"
                color-interpolation-filters="sRGB">
            <feFlood flood-opacity="0" result="BackgroundImageFix"/>
            <feBlend mode="normal" in="SourceGraphic" in2="BackgroundImageFix" result="shape"/>
            <feColorMatrix in="SourceAlpha" type="matrix" values="0 0 0 0 0 0 0 0 0 0 0 0 0 0 0 0 0 0 127 0"
                           result="hardAlpha"/>
            <feOffset dy="4"/>
            <feGaussianBlur stdDeviation="15"/>
            <feComposite in2="hardAlpha" operator="arithmetic" k2="-1" k3="1"/>
            <feColorMatrix type="matrix" values="0 0 0 0 0.5 0 0 0 0 1 0 0 0 0 0.625065 0 0 0 1 0"/>
            <feBlend mode="normal" in2="shape" result="effect1_innerShadow"/>
        </filter>
        <linearGradient id="paint0_linear" x1="-97.2424" y1="-72.6436" x2="121.841" y2="111.848"
                        gradientUnits="userSpaceOnUse">
            <stop stop-color="#0125DA"/>
            <stop offset="1" stop-color="#0125DA" stop-opacity="0"/>
        </linearGradient>
        <linearGradient id="paint1_linear" x1="91" y1="87" x2="109" y2="105.5" gradientUnits="userSpaceOnUse">
            <stop stop-color="#73EFBB"/>
            <stop offset="1" stop-color="#65DED6"/>
        </linearGradient>
        <linearGradient id="paint2_linear" x1="91" y1="87" x2="109" y2="105.5" gradientUnits="userSpaceOnUse">
            <stop stop-color="#73EFBB"/>
            <stop offset="1" stop-color="#65DED6"/>
        </linearGradient>
    </defs>
</svg>

<svg width="141" height="124" fill="none" xmlns="http://www.w3.org/2000/svg"><g filter="url(#a)"><rect width="116.076" height="103.034" rx="10" fill="url(#b)"/></g><rect x=".5" y=".5" width="115.076" height="102.034" rx="9.5" stroke="#FAFAFA" stroke-opacity=".1"/><rect x="11.739" y="16.956" width="65.211" height="10.434" rx="5.217" fill="#131DAA" fill-opacity=".37"/><rect x="12.239" y="17.456" width="64.211" height="9.434" rx="4.717" stroke="#80FF9F" stroke-opacity=".5"/><rect x="92.6" y="16.955" width="13.042" height="10.434" rx="5.217" fill="#022AF0" fill-opacity=".36"/><rect x="93.1" y="17.455" width="12.042" height="9.434" rx="4.717" stroke="#80FF9F" stroke-opacity=".5"/><rect x="11.738" y="44.344" width="50.865" height="44.344" rx="5" fill="#0A1193" fill-opacity=".4"/><rect x="12.238" y="44.844" width="49.865" height="43.344" rx="4.5" stroke="#80FF9F" stroke-opacity=".5"/><rect width="41.735" height="16.955" rx="5" transform="matrix(-1 0 0 1 109.554 44.344)" fill="#131DAA" fill-opacity=".12"/><rect x="-.5" y=".5" width="40.735" height="15.955" rx="4.5" transform="matrix(-1 0 0 1 108.554 44.344)" stroke="#80FF9F" stroke-opacity=".5"/><rect width="41.735" height="16.955" rx="5" transform="matrix(-1 0 0 1 109.554 66.516)" fill="#131DAA" fill-opacity=".23"/><rect x="-.5" y=".5" width="40.735" height="15.955" rx="4.5" transform="matrix(-1 0 0 1 108.554 66.516)" stroke="#80FF9F" stroke-opacity=".5"/><path d="M138.572 92.38h-4.018c-.466-1.63-1.106-3.26-1.98-4.716l2.854-2.853c.64-.699.64-1.805 0-2.504l-5.416-5.416a1.757 1.757 0 0 0-2.504 0l-2.853 2.854c-1.456-.816-3.086-1.456-4.775-1.922v-4.076c0-.99-.757-1.747-1.747-1.747h-7.745c-.989 0-1.746.757-1.746 1.747v4.018a20.164 20.164 0 0 0-4.775 1.98l-2.795-2.795a1.758 1.758 0 0 0-2.504 0l-5.416 5.415c-.64.64-.64 1.805 0 2.504l2.504 2.504c.466-.815 1.223-1.456 2.155-1.922.698-.35 1.514-.582 2.329-.582 1.164 0 2.329.408 3.261 1.106l4.484 3.436c1.805-1.34 3.959-2.155 6.347-2.155 5.939 0 10.772 4.834 10.772 10.773 0 5.94-4.775 10.773-10.772 10.773-2.388 0-4.601-.815-6.347-2.155l-4.484 3.436a5.505 5.505 0 0 1-3.261 1.106c-.815 0-1.63-.174-2.33-.524a5.136 5.136 0 0 1-2.154-1.863l-2.446 2.445c-.698.641-.698 1.806 0 2.504l5.416 5.416a1.757 1.757 0 0 0 2.504 0l2.853-2.853c1.456.815 3.086 1.455 4.775 1.921v4.018c0 .99.757 1.747 1.747 1.747h7.686c.99 0 1.747-.757 1.747-1.747v-4.018a20.148 20.148 0 0 0 4.775-1.98l2.795 2.795a1.757 1.757 0 0 0 2.504 0l5.416-5.415c.698-.641.698-1.805 0-2.504l-2.854-2.853a21.684 21.684 0 0 0 1.98-4.775h4.018c.932 0 1.747-.757 1.747-1.747v-7.628c0-.932-.815-1.747-1.747-1.747Z" fill="url(#c)"/><path d="M98.568 105.832c0 .582.35 1.165.873 1.456a1.502 1.502 0 0 0 1.689-.175l10.19-7.803c.408-.291.641-.757.641-1.28 0-.525-.233-.99-.641-1.282l-10.19-7.803a1.582 1.582 0 0 0-.99-.35c-.233 0-.466.059-.699.175-.524.292-.873.816-.873 1.456v3.552H86.339c-.698 0-1.339.583-1.339 1.34v5.939c0 .699.582 1.339 1.34 1.339h12.228v3.436Z" fill="url(#d)"/><defs><linearGradient id="b" x1="-97.242" y1="-72.644" x2="121.841" y2="111.848" gradientUnits="userSpaceOnUse"><stop stop-color="#0125DA"/><stop offset="1" stop-color="#0125DA" stop-opacity="0"/></linearGradient><linearGradient id="c" x1="91" y1="87" x2="109" y2="105.5" gradientUnits="userSpaceOnUse"><stop stop-color="#73EFBB"/><stop offset="1" stop-color="#65DED6"/></linearGradient><linearGradient id="d" x1="91" y1="87" x2="109" y2="105.5" gradientUnits="userSpaceOnUse"><stop stop-color="#73EFBB"/><stop offset="1" stop-color="#65DED6"/></linearGradient><filter id="a" x="0" y="0" width="116.076" height="107.034" filterUnits="userSpaceOnUse" color-interpolation-filters="sRGB"><feFlood flood-opacity="0" result="BackgroundImageFix"/><feBlend in="SourceGraphic" in2="BackgroundImageFix" result="shape"/><feColorMatrix in="SourceAlpha" values="0 0 0 0 0 0 0 0 0 0 0 0 0 0 0 0 0 0 127 0" result="hardAlpha"/><feOffset dy="4"/><feGaussianBlur stdDeviation="15"/><feComposite in2="hardAlpha" operator="arithmetic" k2="-1" k3="1"/><feColorMatrix values="0 0 0 0 0.5 0 0 0 0 1 0 0 0 0 0.625065 0 0 0 1 0"/><feBlend in2="shape" result="effect1_innerShadow"/></filter></defs></svg>
